X: 34143
T: Reel Du Vétérinaire
R: reel
M: 4/4
K: Fmajor
e|vT(fef)(ua Tgf)ga|Tfefa gfdeT|v(fef)(ua Tgf)ga|bagf ecde|
vT(fef)(ua Tgf)ga|Tfefa gfde|fdcB AFAc|dfeg fdcB||
A(uF ~F2)CFAF|.G.E.C.E v(G,CE)uG|A(uF ~F2)CFAc|dfeg fdcB|
A(uF ~F2)CFAF|.G.E.C.E v(G,CE)uG|A(uF ~F2)CFAc|dfeg f2z2||

